src/icons/hazelcast.svg

<?xml version="1.0" encoding="UTF-8"?>
<svg xmlns="http://www.w3.org/2000/svg" xmlns:xlink="http://www.w3.org/1999/xlink" width="30.364811" height="32" viewBox="0 0 30.364811 32" version="1.1">
<g id="surface1">
<path style=" stroke:none;fill-rule:nonzero;fill:rgb(17.647059%,49.019608%,89.411765%);fill-opacity:1;" d="M 26.90625 0 L 16.242188 0 L 16.242188 14.128906 L 30.359375 14.128906 L 30.359375 3.449219 C 30.359375 1.542969 28.8125 0 26.90625 0 "/>
<path style=" stroke:none;fill-rule:nonzero;fill:rgb(1.568628%,10.196079%,23.137255%);fill-opacity:1;" d="M 26.90625 17.871094 L 19.71875 17.871094 C 17.8125 17.871094 16.269531 19.414062 16.269531 21.320312 L 16.269531 31.992188 L 30.359375 31.992188 L 30.359375 21.347656 C 30.359375 19.441406 28.8125 17.898438 26.90625 17.898438 "/>
<path style=" stroke:none;fill-rule:nonzero;fill:rgb(1.568628%,10.196079%,23.137255%);fill-opacity:1;" d="M 12.101562 32 L 3.53125 32 C 1.582031 32 0 30.417969 0 28.46875 L 0 3.53125 C 0 1.582031 1.582031 0 3.53125 0 L 12.101562 0 Z M 12.101562 32 "/>
</g>
</svg>

<svg role="img" viewBox="0 0 30.365 32" xmlns="http://www.w3.org/2000/svg"><path d="M26.906 0H16.242v14.129H30.36V3.449A3.45 3.45 0 0 0 26.906 0" style="stroke:none;fill-rule:nonzero;fill:rgb(17.647059%,49.019608%,89.411765%);fill-opacity:1"/><path d="M26.906 17.871H19.72a3.448 3.448 0 0 0-3.45 3.45v10.671h14.09V21.348a3.45 3.45 0 0 0-3.453-3.45M12.102 32h-8.57A3.533 3.533 0 0 1 0 28.469V3.53A3.533 3.533 0 0 1 3.531 0h8.57Zm0 0" style="stroke:none;fill-rule:nonzero;fill:rgb(1.568628%,10.196079%,23.137255%);fill-opacity:1"/></svg>
